apps/ledger-live-desktop/src/renderer/images/nanoS.v3.svg

<svg width="51" height="251" viewBox="0 0 51 251" fill="none" xmlns="http://www.w3.org/2000/svg">
<mask id="path-1-inside-1_250:8131" fill="white">
<path fill-rule="evenodd" clip-rule="evenodd" d="M27.3288 135.37C25.0208 133.848 22.9433 131.49 21.4054 128.826C19.7347 125.932 18.7008 122.678 18.7011 119.75C18.701 119.223 18.7347 118.723 18.8008 118.254C18.3002 117.877 17.7876 117.535 17.2658 117.234C14.4126 115.587 11.6929 115.343 9.60678 116.547C7.53726 117.742 6.39735 120.19 6.39746 123.439C6.39822 129.821 10.9214 137.624 16.4809 140.834C19.3334 142.481 22.0531 142.725 24.1394 141.521C26.0484 140.419 27.1664 138.251 27.3288 135.37Z"/>
</mask>
<path fill-rule="evenodd" clip-rule="evenodd" d="M27.3288 135.37C25.0208 133.848 22.9433 131.49 21.4054 128.826C19.7347 125.932 18.7008 122.678 18.7011 119.75C18.701 119.223 18.7347 118.723 18.8008 118.254C18.3002 117.877 17.7876 117.535 17.2658 117.234C14.4126 115.587 11.6929 115.343 9.60678 116.547C7.53726 117.742 6.39735 120.19 6.39746 123.439C6.39822 129.821 10.9214 137.624 16.4809 140.834C19.3334 142.481 22.0531 142.725 24.1394 141.521C26.0484 140.419 27.1664 138.251 27.3288 135.37Z" fill="black"/>
<path d="M21.4054 128.826L22.6802 128.09L21.4054 128.826ZM27.3288 135.37L28.7985 135.453L28.8461 134.608L28.1392 134.141L27.3288 135.37ZM18.7011 119.75L20.173 119.75V119.75L18.7011 119.75ZM18.8008 118.254L20.2584 118.459L20.3794 117.6L19.6865 117.078L18.8008 118.254ZM17.2658 117.234L18.0017 115.959L18.0016 115.959L17.2658 117.234ZM9.60678 116.547L10.3428 117.822L9.60678 116.547ZM6.39746 123.439L4.92547 123.439V123.439L6.39746 123.439ZM16.4809 140.834L17.2169 139.559L17.2168 139.559L16.4809 140.834ZM24.1394 141.521L24.8752 142.796L24.8754 142.796L24.1394 141.521ZM20.1307 129.562C21.7579 132.38 23.9817 134.926 26.5184 136.599L28.1392 134.141C26.06 132.77 24.1288 130.599 22.6802 128.09L20.1307 129.562ZM17.2291 119.75C17.2288 122.999 18.3659 126.505 20.1307 129.562L22.6802 128.09C21.1035 125.359 20.1728 122.358 20.173 119.75L17.2291 119.75ZM17.3432 118.049C17.2666 118.592 17.229 119.161 17.2291 119.75L20.173 119.75C20.173 119.285 20.2027 118.854 20.2584 118.459L17.3432 118.049ZM19.6865 117.078C19.1416 116.668 18.5791 116.292 18.0017 115.959L16.5299 118.509C16.996 118.778 17.4588 119.086 17.9151 119.43L19.6865 117.078ZM18.0016 115.959C14.882 114.158 11.5741 113.712 8.87078 115.273L10.3428 117.822C11.8117 116.974 13.9432 117.016 16.53 118.509L18.0016 115.959ZM8.87078 115.273C6.18686 116.822 4.92534 119.878 4.92547 123.439L7.86945 123.439C7.86935 120.502 8.88765 118.662 10.3428 117.822L8.87078 115.273ZM4.92547 123.439C4.92588 126.952 6.16068 130.751 8.08114 134.064C10.0019 137.378 12.6896 140.345 15.7449 142.108L17.2168 139.559C14.7126 138.113 12.359 135.574 10.6281 132.588C8.89696 129.601 7.86979 126.308 7.86945 123.439L4.92547 123.439ZM15.7448 142.108C18.8639 143.91 22.1718 144.356 24.8752 142.796L23.4036 140.246C21.9344 141.094 19.8029 141.052 17.2169 139.559L15.7448 142.108ZM24.8754 142.796C27.3473 141.369 28.618 138.653 28.7985 135.453L25.8591 135.287C25.7147 137.848 24.7495 139.469 23.4034 140.246L24.8754 142.796Z" fill="black" mask="url(#path-1-inside-1_250:8131)"/>
<path d="M16.8482 140.196L16.8483 140.196C19.5674 141.766 21.993 141.909 23.7708 140.883L16.8482 140.196ZM16.8482 140.196C14.2062 138.671 11.7691 136.025 9.99075 132.957M16.8482 140.196L9.99075 132.957M26.6128 134.628C26.6127 131.61 25.5424 128.206 23.7763 125.147C21.9962 122.064 19.5499 119.402 16.8972 117.871M26.6128 134.628L7.13281 123.439C7.13272 120.346 8.21182 118.202 9.97413 117.185C11.7517 116.158 14.1772 116.301 16.8972 117.871M26.6128 134.628L27.3488 134.629M26.6128 134.628L6.39682 123.439C6.3967 120.19 7.53661 117.742 9.60613 116.547C11.6923 115.343 14.412 115.587 17.2652 117.234M16.8972 117.871L17.2652 117.234M16.8972 117.871L17.2652 117.234M17.2652 117.234C20.0561 118.845 22.5861 121.614 24.4137 124.779C26.2268 127.92 27.3488 131.45 27.3488 134.629M27.3488 134.629L26.6128 134.629M27.3488 134.629L26.6128 134.629M26.6128 134.629C26.6122 137.722 25.5331 139.866 23.7709 140.883L26.6128 134.629ZM9.99075 132.957C8.21226 129.889 7.13319 126.469 7.13281 123.439L9.99075 132.957Z" stroke="black" stroke-width="1.47199"/>
<path d="M14.138 172.466L14.1389 171.223L9.4622 168.518L9.4557 177.053L10.4926 177.653L10.4982 170.361L14.138 172.466Z" fill="black"/>
<path d="M24.8893 185.98L25.9262 186.579L25.9327 178.044L21.2562 175.34L21.2552 176.583L24.8948 178.688L24.8893 185.98Z" fill="black"/>
<path d="M24.8564 227.946L24.8509 235.237L21.2113 233.132L21.2104 234.376L25.8871 237.081L25.8936 228.546L24.8564 227.946Z" fill="black"/>
<path d="M20.6946 202.998C21.1118 202.727 21.336 202.149 21.3366 201.454C21.3371 200.722 21.0935 199.911 20.5652 199.264L20.5654 199.093L21.2364 199.481L21.2372 198.359L17.5672 196.237L17.5647 199.541L18.5 200.082L18.5016 197.948L18.9895 198.23C20.0163 198.824 20.3516 199.469 20.3508 200.603L20.3506 200.871C20.3497 202.005 20.0442 202.377 18.631 201.56L16.7196 200.455C15.2963 199.632 15.0018 198.888 15.0026 197.754L15.0028 197.51C15.0036 196.401 15.3496 196.247 16.3054 196.788L16.3064 195.447C14.9032 194.757 14.018 195.367 14.0167 197.05C14.0161 197.867 14.2292 198.673 14.6353 199.42C15.2346 200.535 16.251 201.55 17.6743 202.373C19.0468 203.167 20.0639 203.389 20.6946 202.998Z" fill="black"/>
<path d="M14.1026 220.471L14.1016 221.714L21.2183 225.83L21.2226 220.221L20.2873 219.681L20.284 224.046L14.1026 220.471Z" fill="black"/>
<path d="M10.4543 226.913L10.4599 219.621L9.42294 219.022L9.4164 227.557L14.0932 230.261L14.0941 229.018L10.4543 226.913Z" fill="black"/>
<path d="M21.2284 213.087L20.2931 212.547L20.2899 216.851L18.1141 215.592L18.117 211.837L17.1817 211.296L17.1788 215.051L15.0437 213.816L15.0469 209.695L14.1115 209.154L14.1075 214.519L21.2242 218.635L21.2284 213.087Z" fill="black"/>
<path d="M21.245 191.14L20.3097 190.599L20.3064 194.903L18.1307 193.645L18.1336 189.889L17.1983 189.349L17.1954 193.104L15.0603 191.869L15.0634 187.748L14.1281 187.207L14.124 192.572L21.2408 196.688L21.245 191.14Z" fill="black"/>
<path d="M21.231 208.844C21.2328 206.515 19.7593 204.797 17.6751 203.592C15.5604 202.369 14.116 202.46 14.1143 204.753L14.1123 207.386L21.229 211.503L21.231 208.844ZM15.0483 206.708L15.0493 205.378C15.0502 204.123 15.315 203.593 16.7385 204.416L18.6091 205.498C20.0324 206.321 20.2964 207.157 20.2954 208.413L20.2944 209.742L15.0483 206.708Z" fill="black"/>
<path d="M21.2476 188.275L18.4112 186.635L18.4126 184.806C18.4133 183.867 18.7389 183.677 19.5524 184.148L21.2503 185.13L21.2512 183.886L19.716 182.998C18.5976 182.351 18.1704 182.421 18.0477 183.326L17.9052 183.244C17.7127 182.242 17.0217 181.221 16.1984 180.744C15.6799 180.445 15.212 180.418 14.8354 180.664C14.3671 180.978 14.1328 181.624 14.132 182.635L14.1299 185.379L21.2467 189.495L21.2476 188.275ZM15.0664 184.7L15.0679 182.749C15.0686 181.798 15.3332 181.61 16.0551 182.027L16.482 182.274C17.2242 182.703 17.4781 183.18 17.4774 184.143L17.4759 186.094L15.0664 184.7Z" fill="black"/>
<path fill-rule="evenodd" clip-rule="evenodd" d="M33.4385 27.4978L33.4388 134.128C33.0629 132.153 32.5365 130.176 31.8555 128.238L31.8722 128.245L31.8685 28.1443L1.83803 10.6128L1.7162 115.459L1.81006 115.499C1.21726 117.439 0.903282 119.665 0.90332 122.113L0.903512 230.493L0.903914 230.946L34.0741 250.098L34.0741 249.966L50.1014 239.919L50.1011 131.104C50.1011 127.511 49.4013 123.641 48.166 119.851L48.6804 18.2447L17.08 0L1.61714 8.67228L33.4381 27.0448L33.4385 27.4978ZM2.47349 230.04L2.4737 122.113C2.47332 116.284 4.32103 111.874 7.54252 110.014C10.1578 108.504 13.5505 108.801 17.0961 110.848C25.5916 115.752 32.504 128.99 32.5037 140.358L32.504 247.358L27.6978 244.581L27.6882 244.598L2.47349 230.04ZM48.5308 131.104L48.5315 239.05L34.0741 248.113L34.0741 150.085L48.0538 142.014L48.1334 126.301C48.3895 127.935 48.5307 129.548 48.5308 131.104ZM10.0778 26.8622L11.2001 27.5543L24.4481 35.724L24.7977 35.9396V36.3504V98.462V99.805L23.6657 99.0823L10.4178 90.6248L10.0778 90.4078V90.0044V28.1807V26.8622ZM11.5498 29.4993V89.6011L23.3258 97.1189V36.7613L11.5498 29.4993ZM42.4622 38.8186C42.4622 38.6961 42.3213 38.6272 42.2246 38.7024L40.0297 40.4096C39.707 40.6606 39.5182 41.0465 39.5182 41.4553V55.8149C39.5182 55.9373 39.6591 56.0062 39.7558 55.931L41.9508 54.2239C42.2735 53.9729 42.4622 53.5869 42.4622 53.1781V38.8186ZM41.3209 37.5405C42.3845 36.7132 43.9342 37.4712 43.9342 38.8186V53.1781C43.9342 54.0412 43.5357 54.8559 42.8545 55.3858L40.6595 57.093C39.5959 57.9202 38.0462 57.1623 38.0462 55.8149V41.4553C38.0462 40.5923 38.4447 39.7775 39.126 39.2477L41.3209 37.5405ZM42.4622 80.0346C42.4622 79.9121 42.3213 79.8432 42.2246 79.9184L40.0297 81.6256C39.707 81.8766 39.5182 82.2625 39.5182 82.6714V97.0309C39.5182 97.1534 39.6591 97.2223 39.7558 97.1471L41.9508 95.4399C42.2735 95.1889 42.4622 94.803 42.4622 94.3942V80.0346ZM41.3209 78.7565C42.3845 77.9293 43.9342 78.6872 43.9342 80.0346V94.3942C43.9342 95.2572 43.5357 96.0719 42.8545 96.6018L40.6595 98.309C39.5959 99.1362 38.0462 98.3783 38.0462 97.0309V82.6714C38.0462 81.8083 38.4447 80.9936 39.126 80.4637L41.3209 78.7565Z" fill="black"/>
</svg>

<svg xmlns="http://www.w3.org/2000/svg" width="51" height="251" fill="none" viewBox="0 0 51 251"><mask id="a" fill="#fff"><path fill-rule="evenodd" d="M27.329 135.37c-2.308-1.522-4.386-3.88-5.924-6.544-1.67-2.894-2.704-6.148-2.704-9.076q0-.792.1-1.496-.751-.567-1.535-1.02c-2.853-1.647-5.573-1.891-7.66-.687-2.069 1.195-3.209 3.643-3.209 6.892.001 6.382 4.524 14.185 10.084 17.395 2.852 1.647 5.572 1.891 7.658.687 1.91-1.102 3.027-3.27 3.19-6.151" clip-rule="evenodd"/></mask><path fill="#000" fill-rule="evenodd" d="M27.329 135.37c-2.308-1.522-4.386-3.88-5.924-6.544-1.67-2.894-2.704-6.148-2.704-9.076q0-.792.1-1.496-.751-.567-1.535-1.02c-2.853-1.647-5.573-1.891-7.66-.687-2.069 1.195-3.209 3.643-3.209 6.892.001 6.382 4.524 14.185 10.084 17.395 2.852 1.647 5.572 1.891 7.658.687 1.91-1.102 3.027-3.27 3.19-6.151" clip-rule="evenodd"/><path fill="#000" d="m21.405 128.826 1.275-.736zm5.924 6.544 1.47.083.047-.845-.707-.467zM18.7 119.75h1.472zm.1-1.496 1.457.205.121-.859-.693-.522zm-1.535-1.02.736-1.275zm-7.66-.687.737 1.275zm-3.209 6.892H4.925zm10.084 17.395.736-1.275zm7.658.687.736 1.275zm-4.008-11.959c1.627 2.818 3.85 5.364 6.387 7.037l1.621-2.458c-2.079-1.371-4.01-3.542-5.459-6.051zm-2.902-9.812c0 3.249 1.137 6.755 2.902 9.812l2.55-1.472c-1.578-2.731-2.508-5.732-2.508-8.34zm.114-1.701a12 12 0 0 0-.114 1.701h2.944q.001-.698.085-1.291zm2.343-.971a17 17 0 0 0-1.684-1.119l-1.472 2.55q.7.404 1.385.921zm-1.684-1.119c-3.12-1.801-6.428-2.247-9.131-.686l1.472 2.549c1.469-.848 3.6-.806 6.187.687zm-9.131-.686c-2.684 1.549-3.946 4.605-3.946 8.166H7.87c0-2.937 1.019-4.777 2.474-5.617zm-3.946 8.166c0 3.513 1.236 7.312 3.156 10.625 1.92 3.314 4.609 6.281 7.664 8.044l1.472-2.549c-2.504-1.446-4.858-3.985-6.589-6.971s-2.758-6.28-2.759-9.149zm10.82 18.669c3.119 1.802 6.427 2.248 9.13.688l-1.471-2.55c-1.47.848-3.601.806-6.187-.687zm9.13.688c2.472-1.427 3.743-4.143 3.924-7.343l-2.94-.166c-.144 2.561-1.11 4.182-2.456 4.959z" mask="url(#a)"/><path stroke="#000" stroke-width="1.472" d="M16.848 140.196c2.72 1.57 5.145 1.713 6.923.687zm0 0c-2.642-1.525-5.079-4.171-6.857-7.239m6.857 7.239-6.857-7.239m16.622 1.671c0-3.018-1.07-6.422-2.837-9.481-1.78-3.083-4.226-5.745-6.879-7.276m9.716 16.757-19.48-11.189c0-3.093 1.079-5.237 2.841-6.254 1.778-1.027 4.203-.884 6.923.686m9.716 16.757.736.001m-.736-.001L6.397 123.439c0-3.249 1.14-5.697 3.21-6.892 2.085-1.204 4.805-.96 7.658.687m-.368.637.368-.637m-.368.637.368-.637m0 0c2.791 1.611 5.321 4.38 7.149 7.545 1.813 3.141 2.935 6.671 2.935 9.85m0 0h-.736m.736 0h-.736m0 0c0 3.093-1.08 5.237-2.842 6.254zM9.99 132.957c-1.779-3.068-2.858-6.488-2.858-9.518z"/><path fill="#000" d="M14.138 172.466v-1.243l-4.676-2.705-.006 8.535 1.037.6.005-7.292zM24.89 185.98l1.036.599.007-8.535-4.677-2.704v1.243l3.639 2.105zm-.034 41.966-.005 7.291-3.64-2.105v1.244l4.676 2.705.007-8.535zm-4.161-24.948c.417-.271.641-.849.642-1.544 0-.732-.244-1.543-.772-2.19v-.171l.671.388.001-1.122-3.67-2.122-.002 3.304.935.541.002-2.134.488.282c1.026.594 1.362 1.239 1.36 2.373v.268c0 1.134-.306 1.506-1.719.689l-1.911-1.105c-1.424-.823-1.718-1.567-1.717-2.701v-.244c0-1.109.347-1.263 1.302-.722l.001-1.341c-1.403-.69-2.288-.08-2.29 1.603 0 .817.213 1.623.62 2.37.599 1.115 1.615 2.13 3.038 2.953 1.373.794 2.39 1.016 3.02.625m-6.591 17.473-.001 1.243 7.116 4.116.005-5.609-.936-.54-.003 4.365zm-3.649 6.442.006-7.292-1.037-.599-.007 8.535 4.677 2.704.001-1.243zm10.774-13.826-.935-.54-.003 4.304-2.176-1.259.003-3.755-.935-.541-.003 3.755-2.135-1.235.003-4.121-.936-.541-.004 5.365 7.117 4.116zm.017-21.947-.935-.541-.004 4.304-2.175-1.258.003-3.756-.936-.54-.003 3.755-2.135-1.235.003-4.121-.935-.541-.004 5.365 7.117 4.116zm-.014 17.704c.002-2.329-1.472-4.047-3.556-5.252-2.115-1.223-3.559-1.132-3.56 1.161l-.003 2.633 7.117 4.117zm-6.183-2.136.001-1.33c.001-1.255.266-1.785 1.69-.962l1.87 1.082c1.423.823 1.687 1.659 1.686 2.915v1.329zm6.2-18.433-2.837-1.64.002-1.829c0-.939.326-1.129 1.14-.658l1.697.982.001-1.244-1.535-.888c-1.118-.647-1.546-.577-1.668.328l-.143-.082c-.192-1.002-.883-2.023-1.707-2.5-.518-.299-.986-.326-1.363-.08-.468.314-.702.96-.703 1.971l-.002 2.744 7.117 4.116zm-6.182-3.575.002-1.951c0-.951.265-1.139.987-.722l.427.247c.742.429.996.906.995 1.869l-.001 1.951z"/><path fill="#000" fill-rule="evenodd" d="M33.439 27.498v106.63a41 41 0 0 0-1.584-5.89l.017.007-.003-100.1L1.838 10.612l-.122 104.846.094.04c-.593 1.94-.907 4.166-.907 6.614v108.833l33.171 19.152v-.132l16.027-10.047V131.104c0-3.593-.7-7.463-1.935-11.253l.514-101.606L17.08 0 1.617 8.672l31.821 18.373zM2.472 230.04V122.113c0-5.829 1.848-10.239 5.07-12.099 2.615-1.51 6.007-1.213 9.553.834 8.496 4.904 15.408 18.142 15.408 29.51v107l-4.806-2.777-.01.017zm46.058-98.936V239.05l-14.457 9.063v-98.028l13.98-8.071.08-15.713a31 31 0 0 1 .397 4.803M10.078 26.862l1.122.692 13.248 8.17.35.216v63.865l-1.132-.723-13.248-8.457-.34-.217zM11.55 29.5v60.102l11.776 7.518V36.76zm30.912 9.32a.147.147 0 0 0-.237-.117L40.03 40.41a1.33 1.33 0 0 0-.512 1.045v14.36c0 .122.141.191.238.116l2.195-1.707c.322-.251.511-.637.511-1.046zm-1.141-1.279c1.064-.827 2.613-.069 2.613 1.279v14.36c0 .862-.398 1.677-1.08 2.207l-2.194 1.707c-1.064.827-2.614.07-2.614-1.278v-14.36c0-.863.399-1.677 1.08-2.207zm1.141 42.495a.147.147 0 0 0-.237-.117l-2.195 1.708a1.33 1.33 0 0 0-.512 1.045v14.36c0 .122.141.191.238.116l2.195-1.707c.322-.251.511-.637.511-1.046zm-1.141-1.278c1.064-.828 2.613-.07 2.613 1.278v14.36c0 .862-.398 1.677-1.08 2.207L40.66 98.31c-1.064.827-2.614.07-2.614-1.278V82.67c0-.863.399-1.677 1.08-2.207z" clip-rule="evenodd"/></svg>
